!!!SOCIAL_FUNCTION:	songs used in the treatment of the sick
!!!PDT:	1922
!!!OTL: No_58_Song_Used_in_Treatment_of_Sick_(g).krn
!!!REG: Southwest
!!!LANG: Non-Tone
!!!LING_GROUP: Uto-Aztecan
**kern
*staff1
=1-
*clefF4
*k[f#]
*M2/4
4A\
4A\
=2
8B\L
8A\J
8G\L
8A\J
=3
2A\
=4
8G\L
8A\J
8B\L
8A\J
=5
2G\
=6
16A\LK
8.G\J
4G\
=7
8A\L
8G\J
[4G\
=8||
*M3/4
2G\]
8.G\L
16D\Jk
=9
4G\
4G\
8.G\L
16D\Jk
=10||
*M2/4
2D\
=11
4.D\
8D\
=12
2D\
==
*-
